!!!!SEGMENT: pl-cz--iii-739--001_zebrowski-marcin-jozef--andante-pro-processione-in-g.krn
!!!cenid: 17xx:2327
!!!COM: Żebrowski, Marcin Józef
!!!COM-rismid: pe30020322
!!!CDT: 1702-1770/06/29
!!!CNT: Polish
!!!OTL: Andante pro processione in g
!!!PDT:
!!!AGN:
!!!SMS-siglum: PL-CZ
!!!SMS-shelfmark: III-739
!!!SMS-shelfwork: 001 W
!!!SMS-variant: Basso Continuo PL-CZ III-739:2
!!!SMS-altvar: Basso Continuo PL-CZ III-739:8
!!!NIFC-rismid: 300033514
!!!URL-scan: https://repozytorium.nifc.pl/islandora/object/pl-cz%3A25069/datastream/PDF/view
!!!ONB-nifc: UWAGA: w zbiorze 2 Andante: 1. in g, 2. in D
!!!key: g
**kern	**fba	**kern	**dynam	**kern	**dynam	**kern	**kern	**kern	**dynam	**kern	**dynam
*	*	*group3	*	*group3	*	*group2	*group2	*group1	*	*group1	*
*part7	*part7	*part6	*part6	*part5	*part5	*part4	*part3	*part2	*part2	*part1	*part1
*staff7	*staff7	*staff6	*	*staff5	*	*staff4	*staff3	*staff2	*	*staff1	*
*I"Baſso Continuo.	*	*I"Violino Secondo.	*	*I"Violino Primo.	*	*I"Clarino Secondo ex b.	*I"Clarino primo ex b.	*I"Hoboe Secondo.	*	*I"Hoboe Primo.	*
*I'b.c.	*	*I'vl 2	*	*I'vl 1	*	*I'clno 2 in B|b	*I'clno 1 in B|b	*I'ob 2	*	*I'ob 1	*
*Iorgan	*	*Ivioln	*	*Ivioln	*	*Iclrno	*Iclrno	*Ioboe	*	*Ioboe	*
*ICklav	*	*ICstr	*	*ICstr	*	*ICbras	*ICbrass	*ICww	*	*ICww	*
*IGcont	*	*	*	*	*	*	*	*	*	*	*
*clefF4	*	*clefG2	*	*clefG2	*	*clefG2	*clefG2	*clefG2	*	*clefG2	*
*	*	*	*	*	*	*ITrd1c2	*ITrd1c2	*	*	*	*
*k[e-b-]	*	*k[e-b-]	*	*k[e-b-]	*	*k[b-e-]	*k[b-e-]	*k[e-b-]	*	*k[e-b-]	*
*g:	*	*g:	*	*g:	*	*g:	*g:	*g:	*	*g:	*
*M3/4	*	*M3/4	*	*M3/4	*	*M3/4	*M3/4	*M3/4	*	*M3/4	*
=1	=1	=1	=1	=1	=1	=1	=1	=1	=1	=1	=1
!	!	!LO:TX:a:t=Andante.	!	!	!	!LO:TX:a:t=1.	!	!LO:TX:a:t=Andante.	!	!LO:TX:a:t=Andante.	!
!LO:TX:a:t=Andante.	!	!LO:TX:a:t=1.	!	!LO:TX:a:t=Andante.	!	!LO:TX:a:t=Andante.	!LO:TX:a:t=Andante.	!LO:TX:a:t=1.	!	!	!
4r	.	2.r	.	(16g/LL	.	2.r	4r	2.r	.	(16g/LL	.
.	.	.	.	16f#X/	.	.	.	.	.	16f#X/	.
.	.	.	.	16g/	.	.	.	.	.	16g/	.
.	.	.	.	16a/JJ)	.	.	.	.	.	16a/JJ)	.
.	.	.	.	8qqa/	.	.	.	.	.	8qqa/	.
4G\	.	.	.	4.g/	.	.	4d/	.	.	4.g/	.
4GG/	.	.	.	.	.	.	4d/	.	.	.	.
.	.	.	.	8a/	.	.	.	.	.	8a/	.
=2	=2	=2	=2	=2	=2	=2	=2	=2	=2	=2	=2
4r	.	(16g/LL	.	(16b-\LL	.	4r	4d/	(16g/LL	.	(16b-\LL	.
.	.	16f#X/	.	16a\	.	.	.	16f#X/	.	16a\	.
.	.	16g/)	.	16b-\	.	.	.	16g/	.	16b-\	.
.	.	16a/JJ|	.	16cc\JJ)	.	.	.	16a/JJ)	.	16cc\JJ)	.
.	.	8qqa/	.	8qqcc/	.	.	.	8qqa/	.	8qqcc/	.
4G\	.	4.g/	.	4.b-\	.	4d/	4r	4.g/	.	4.b-\	.
4GG/	.	.	.	.	.	4d/	4r	.	.	.	.
.	.	8a/	.	8cc\	.	.	.	8a/	.	8cc\	.
=3	=3	=3	=3	=3	=3	=3	=3	=3	=3	=3	=3
4r	.	(16b-\LL	.	(16dd\LL	.	4d/	4d/	(16b-\LL	.	(16dd\LL	.
.	.	16a\	.	16cc\	.	.	.	16a\	.	16cc\	.
.	.	16b-\	.	16dd\	.	.	.	16b-\	.	16dd\	.
.	.	16cc\JJ)|	.	16ee-\JJ)	.	.	.	16cc\JJ)	.	16ee-\JJ)	.
.	.	8qqcc/	.	8qqee-/	.	.	.	8qqcc/	.	8qqee-/	.
4G\	.	4.b-\	.	4.dd\	.	4d/	4d/	4.b-\	.	4.dd\	.
4GG/	.	.	.	.	.	4d/	4d/	.	.	.	.
.	.	8cc\	.	8ee-\	.	.	.	8cc\	.	8ee-\	.
=4	=4	=4	=4	=4	=4	=4	=4	=4	=4	=4	=4
4C/	+4r 2	4dd\|	.	4f#X/|	.	4d/	4d/	4dd\|	.	4f#X/|	.
4BB-/	6	4d/|	.	4g/|	.	4d/	4d/	4d/|	.	4g/|	.
4r	.	4r	.	4r	.	4r	4r	4r	.	4r	.
=5	=5	=5	=5	=5	=5	=5	=5	=5	=5	=5	=5
!	!	!LO:TX:a:t=1.	!	!	!	!LO:TX:a:t=1.	!	!LO:TX:a:t=4.	!	!LO:TX:a:t=4.	!
4r	.	2.r	.	(16b-\LL	.	2.r	4b-\	0.r	.	0.r	.
.	.	.	.	16a\	.	.	.	.	.	.	.
.	.	.	.	16b-\	.	.	.	.	.	.	.
.	.	.	.	16cc\JJ)	.	.	.	.	.	.	.
.	.	.	.	8qqcc/	.	.	.	.	.	.	.
4B-\	5	.	.	4.b-\	.	.	4.b-\	.	.	.	.
4BB-/	.	.	.	.	.	.	.	.	.	.	.
.	.	.	.	8cc\	.	.	8cc\	.	.	.	.
=6	=6	=6	=6	=6	=6	=6	=6	=6	=6	=6	=6
4r	.	(16b-\LL	.	(16dd\LL	.	4b-\	4dd\	.	.	.	.
.	.	16a\	.	16cc\	.	.	.	.	.	.	.
.	.	16b-\	.	16dd\	.	.	.	.	.	.	.
.	.	16cc\JJ)	.	16ee-\JJ)	.	.	.	.	.	.	.
.	.	8qqcc/	.	8qqee-/	.	.	.	.	.	.	.
4B-\	.	4.b-\	.	4.dd\	.	4.b-\	4.dd\	.	.	.	.
4BB-/	.	.	.	.	.	.	.	.	.	.	.
.	.	8cc\	.	8ee-\	.	8cc\	8ee-\	.	.	.	.
=7	=7	=7	=7	=7	=7	=7	=7	=7	=7	=7	=7
4r	.	(16dd\LL	.	(16ff\LL	.	4dd\	4ff\	.	.	.	.
.	.	16cc\	.	16ee-\	.	.	.	.	.	.	.
.	.	16dd\	.	16ff\	.	.	.	.	.	.	.
.	.	16ee-\JJ)	.	16gg\JJ)	.	.	.	.	.	.	.
.	.	8qqee-/	.	8qqgg/	.	.	.	.	.	.	.
4B-\	.	4.dd\	.	4.ff\	.	4.dd\	4.ff\	.	.	.	.
4BB-/	.	.	.	.	.	.	.	.	.	.	.
.	.	8ee-\	.	8gg\	.	8ee-\	8gg\	.	.	.	.
!	!	!	!	!LO:LB:g=original	!	!	!	!	!	!	!
=8	=8	=8	=8	=8	=8	=8	=8	=8	=8	=8	=8
4E-\	4 2	4ff\|	.	4a/|	.	4cc\	4aa\	.	.	.	.
4D\	6	4f/|	.	4b-/|	.	4dd\	4bb-\	.	.	.	.
4r	.	4r	.	4r	.	4r	4r	.	.	.	.
!	!	!LO:LB:g=original	!	!	!	!	!LO:LB:g=original	!	!	!	!
=9	=9	=9	=9	=9	=9	=9	=9	=9	=9	=9	=9
*	*	*	*	*	*	*2\right	*2\right	*	*	*	*
!	!	!	!	!	!	!	!	!LO:TX:b:i:t=Solo.	!	!LO:TX:b:i:t=Solo.	!
4B-\	.	4r	.	8r	.	2dd\	2ff\	(16dd\LL	.	(16ff\LL	.
.	.	.	.	.	.	.	.	16cc\	.	16ee-\	.
!	!	!	!	!	!LO:DY:t=pia	!	!	!	!	!	!
.	.	.	.	8bb-\L	p	.	.	16dd\	.	16ff\	.
.	.	.	.	.	.	.	.	16ee-\JJ)	.	16gg\JJ)	.
.	.	.	.	.	.	.	.	8qqee-/	.	8qqgg/	.
*	*	*	*	*	*	*	*	*2\right	*	*2\right	*
4B-\	.	8r	.	8ff\	.	.	.	2dd\	.	2ff\	.
.	.	8b-\L	.	8dd\J	.	.	.	.	.	.	.
!	!	!	!LO:DY:t=pia	!	!	!	!	!	!	!	!
4B-\	.	8dd\	p	4b-T\	.	16dd\LL	16ff\LL	.	.	.	.
.	.	.	.	.	.	16cc\	16ee-\	.	.	.	.
.	.	8ff\J	.	.	.	16dd\	16ff\	.	.	.	.
.	.	.	.	.	.	16ee-\JJ	16gg\JJ	.	.	.	.
!	!	!	!	!	!	!LO:LB:g=original	!	!	!	!	!
=10	=10	=10	=10	=10	=10	=10	=10	=10	=10	=10	=10
!	!	!	!	!	!	!	!	!LO:TX:b:i:t=Solo.	!	!	!
4B-\	.	4bb-\	.	8r	.	2dd\	2ff\	(16ff\LL	.	(16ddd\LL	.
.	.	.	.	.	.	.	.	16ee-\	.	16ccc\	.
.	.	.	.	8bb-\L	.	.	.	16ff\	.	16ddd\	.
.	.	.	.	.	.	.	.	16gg\JJ)	.	16eee-\JJ)	.
.	.	.	.	.	.	.	.	8qqgg/	.	8qqeee-/	.
4B-\	.	8r	.	8ff\	.	.	.	2ff\	.	2ddd\	.
.	.	8b-\L	.	8dd\J	.	.	.	.	.	.	.
4B-\	.	8dd\	.	4b-T\	.	16dd\LL	16ff\LL	.	.	.	.
.	.	.	.	.	.	16cc\	16ee-\	.	.	.	.
.	.	8ff\J	.	.	.	16dd\	16ff\	.	.	.	.
.	.	.	.	.	.	16ee-\JJ	16gg\JJ	.	.	.	.
!LO:LB:g=original	!	!	!	!	!	!	!	!LO:LB:g=original	!	!	!
=11	=11	=11	=11	=11	=11	=11	=11	=11	=11	=11	=11
4F\	7	4f/	.	8r	.	2cc\	2ee-\	(16cc\LL	.	(16ee-\LL	.
.	.	.	.	.	.	.	.	16b-\	.	16dd\	.
.	.	.	.	8ff\L	.	.	.	16cc\	.	16ee-\	.
.	.	.	.	.	.	.	.	16dd\JJ)	.	16ff\JJ)	.
.	.	.	.	.	.	.	.	8qqdd/	.	8qqff/	.
4F\	.	8r	.	8cc\	.	.	.	2cc\	.	2ee-\	.
.	.	8f/L	.	8a\J	.	.	.	.	.	.	.
4F\	.	8a/	.	4fT/	.	16cc\LL	16ee-\LL	.	.	.	.
.	.	.	.	.	.	16b-\	16dd\	.	.	.	.
.	.	8cc/J	.	.	.	16cc\	16ee-\	.	.	.	.
.	.	.	.	.	.	16dd\JJ	16ff\JJ	.	.	.	.
!	!	!	!	!	!	!	!	!	!	!LO:LB:g=original	!
=12	=12	=12	=12	=12	=12	=12	=12	=12	=12	=12	=12
4F\	.	4ff\	.	8r	.	2cc\	2ee-\	(16ee-\LL	.	(16ccc\LL	.
.	.	.	.	.	.	.	.	16dd\	.	16bb-\	.
.	.	.	.	8ff\L	.	.	.	16ee-\	.	16ccc\	.
.	.	.	.	.	.	.	.	16ff\JJ)	.	16ddd\JJ)	.
.	.	.	.	.	.	.	.	8qqff/	.	8qqddd/	.
4F\	.	8r	.	8cc\	.	.	.	2ee-\	.	2ccc\	.
.	.	8f/L	.	8a\J	.	.	.	.	.	.	.
4F\	.	8a/	.	4fT/	.	16cc\LL	16ee-\LL	.	.	.	.
.	.	.	.	.	.	16b-\	16dd\	.	.	.	.
.	.	8cc/J	.	.	.	16cc\	16ee-\	.	.	.	.
.	.	.	.	.	.	16dd\JJ	16ff\JJ	.	.	.	.
=13	=13	=13	=13	=13	=13	=13	=13	=13	=13	=13	=13
4BB-/	.	4d/	.	4f/	.	2b-\	2dd\	(16dd\LL	.	(16dd\LL	.
.	.	.	.	.	.	.	.	16cc\	.	16cc\	.
.	.	.	.	.	.	.	.	16dd\	.	16dd\	.
.	.	.	.	.	.	.	.	16ee-\JJ)	.	16ee-\JJ)	.
.	.	.	.	.	.	.	.	8qqee-/	.	8qqee-/	.
4B-\	.	4r	.	4r	.	.	.	2dd\	.	2dd\	.
4A\	4 2	4r	.	4r	.	16b-\LL	16dd\LL	.	.	.	.
.	.	.	.	.	.	16f\	16cc\	.	.	.	.
.	.	.	.	.	.	16b-\	16dd\	.	.	.	.
.	.	.	.	.	.	16cc\JJ	16ee-\JJ	.	.	.	.
=14	=14	=14	=14	=14	=14	=14	=14	=14	=14	=14	=14
!	!	!LO:TX:a:t=3.	!	!LO:TX:a:t=3.	!	!	!	!	!	!	!
4GG/	5	1.r	.	1.r	.	2b-\	2dd\	(16dd\LL	.	(16bb-\LL	.
.	.	.	.	.	.	.	.	16cc\	.	16aa\	.
.	.	.	.	.	.	.	.	16dd\	.	16bb-\	.
.	.	.	.	.	.	.	.	16ee-\JJ)	.	16ccc\JJ)	.
.	.	.	.	.	.	.	.	8qqee-/	.	8qqccc/	.
4G\	.	.	.	.	.	.	.	[2dd\	.	[2bb-\	.
4F\	4 2	.	.	.	.	16b-\LL	16dd\LL	.	.	.	.
.	.	.	.	.	.	16f\	16cc\	.	.	.	.
.	.	.	.	.	.	16b-\	16dd\	.	.	.	.
.	.	.	.	.	.	16cc\JJ	16ee-\JJ	.	.	.	.
=15	=15	=15	=15	=15	=15	=15	=15	=15	=15	=15	=15
*2\right	*	*	*	*	*	*	*	*	*	*	*
2E-\	7	.	.	.	.	4b-\	4dd\	8dd\L]	.	8bb-\L]	.
.	.	.	.	.	.	.	.	8cc\	.	8aa\	.
.	.	.	.	.	.	4r	4r	8ee-\	.	8gg\	.
.	.	.	.	.	.	.	.	8dd\	.	8ff\	.
4E-\	6	.	.	.	.	4r	4r	8cc\	.	8ee-\	.
.	.	.	.	.	.	.	.	8b-\J	.	8dd\J	.
!	!	!	!	!	!	!	!LO:LB:g=original	!	!	!	!
=16	=16	=16	=16	=16	=16	=16	=16	=16	=16	=16	=16
.	.	.	.	.	.	.	.	8qqcc/	.	8qqee-/	.
4F\	6 4	2.r	.	2.r	.	4r	4r	4b-\	.	4dd\	.
(16F\LL	5 3	.	.	.	.	8cc\L	8aa\L	4a/	.	4cc\	.
16En\	.	.	.	.	.	.	.	.	.	.	.
16F\	.	.	.	.	.	8cc\J	8aa\J	.	.	.	.
16G\JJ)	.	.	.	.	.	.	.	.	.	.	.
(16F\LL	.	.	.	.	.	4cc\	4aa\	4r	.	4r	.
16En\	.	.	.	.	.	.	.	.	.	.	.
16F\	.	.	.	.	.	.	.	.	.	.	.
16G\JJ)	.	.	.	.	.	.	.	.	.	.	.
=17	=17	=17	=17	=17	=17	=17	=17	=17	=17	=17	=17
!	!	!	!	!	!LO:DY:rj:t=for	!	!	!LO:TX:a:t=2.	!	!LO:TX:a:t=2.	!
4F\	6 4	8r	.	(16d/LL	f	4f/	4f/	1.r	.	1.r	.
!	!	!	!LO:DY:t=for&colon;	!	!	!	!	!	!	!	!
.	.	.	f	16c/	.	.	.	.	.	.	.
.	.	16r	.	16d/)	.	.	.	.	.	.	.
.	.	16d/|	.	16b-/JJ|	.	.	.	.	.	.	.
4F\	.	(4.d/	.	(4.b-/	.	4r	4r	.	.	.	.
4F\	5 3	.	.	.	.	4r	4r	.	.	.	.
.	.	8c/)	.	8a/)	.	.	.	.	.	.	.
!	!	!LO:LB:g=original	!	!LO:LB:g=original	!	!LO:LB:g=original	!	!	!	!	!
=18	=18	=18	=18	=18	=18	=18	=18	=18	=18	=18	=18
!	!	!	!	!LO:TX:t=P:problem:mxied beam	!	!	!	!	!	!	!
4F\	6 4	(16d/LL	.	(16f/LL	.	4f/	[2.ff\	.	.	.	.
.	.	16c/	.	16e-/	.	.	.	.	.	.	.
.	.	16d/)	.	16f/)	.	.	.	.	.	.	.
.	.	16b-/JJ|	.	16dd\JJ|	.	.	.	.	.	.	.
4F\	.	(4.b-/	.	4.dd\	.	4r	.	.	.	.	.
4F\	5 3	.	.	.	.	4r	.	.	.	.	.
.	.	8a/)	.	8cc\	.	.	.	.	.	.	.
!	!	!	!	!	!	!	!	!LO:LB:g=original	!	!	!
=19	=19	=19	=19	=19	=19	=19	=19	=19	=19	=19	=19
!	!	!	!LO:DY:rj:t=p&colon;	!	!	!	!	!	!	!	!
4FF/	6 4	(16f/LL	p	(16dd\LL	.	4f/	2.ff\_	8r	.	8r	.
!	!	!	!	!	!LO:DY:t=pia	!	!	!	!	!	!
.	.	16e-/	.	16cc\	p	.	.	.	.	.	.
.	.	16f/)	.	16dd\)	.	.	.	16r	.	16r	.
.	.	16dd/JJ|	.	16bb-\JJ|	.	.	.	16d/|	.	16b-/|	.
4FF/	.	(4.dd\	.	(4.bb-\	.	4r	.	(4.d/	.	(4.b-/	.
4FF/	5 3	.	.	.	.	4r	.	.	.	.	.
.	.	8cc\)	.	8aa\)	.	.	.	8c/)	.	8a/)	.
=20	=20	=20	=20	=20	=20	=20	=20	=20	=20	=20	=20
4FF/	6 4	(16dd\LL	.	(16ff\LL	.	4f/	2.ff\]	8r	.	8r	.
.	.	16cc\	.	16een\	.	.	.	.	.	.	.
.	.	16dd\)	.	16ff\)	.	.	.	16r	.	16r	.
.	.	16bb-\JJ|	.	16ddd\JJ|	.	.	.	16b-/|	.	16dd\|	.
4FF/	.	(4.bb-\	.	(4.ddd\	.	4r	.	(4.b-/	.	(4.dd\	.
4FF/	5 3	.	.	.	.	4r	.	.	.	.	.
.	.	8aa\)	.	8ccc\)	.	.	.	8a/)	.	8cc\)	.
!LO:LB:g=original	!	!	!	!	!	!	!	!	!	!	!
=21	=21	=21	=21	=21	=21	=21	=21	=21	=21	=21	=21
*	*	*	*	*Xtuplet	*	*	*	*	*	*	*
!	!	!	!	!	!LO:DY:t=for	!LO:TX:a:t=4.	!LO:TX:a:t=3.	!LO:TX:a:t=3.	!	!LO:TX:a:t=3.	!
4r	.	4r	.	12ee-X\L|	f	0.r	1.r	1.r	.	1.r	.
!	!	!	!LO:DY:t=f&colon;	!	!	!	!	!	!	!	!
.	.	.	f	12gg\|	.	.	.	.	.	.	.
.	.	.	.	12bb-\J|	.	.	.	.	.	.	.
*	*	*Xtuplet	*	*	*	*	*	*	*	*	*
4G\|	6	12ee-\L|	.	12gg\L|	.	.	.	.	.	.	.
.	.	12gg\|	.	12ee-\|	.	.	.	.	.	.	.
.	.	12bb-\J|	.	12cc#X\J|	.	.	.	.	.	.	.
.	.	8qqbb-/	.	.	.	.	.	.	.	.	.
4F\|	6	4aa\	.	(8cc#\L	.	.	.	.	.	.	.
.	.	.	.	8dd\J)	.	.	.	.	.	.	.
=22	=22	=22	=22	=22	=22	=22	=22	=22	=22	=22	=22
4r	.	4r	.	12ccn\L|	.	.	.	.	.	.	.
.	.	.	.	12ee-\|	.	.	.	.	.	.	.
.	.	.	.	12gg\J|	.	.	.	.	.	.	.
4E-\|	6	12cc\L|	.	12ee-\L|	.	.	.	.	.	.	.
.	.	12ee-\|	.	12cc\|	.	.	.	.	.	.	.
.	.	12gg\J|	.	12a\J|	.	.	.	.	.	.	.
.	.	8qqgg/	.	.	.	.	.	.	.	.	.
4D\|	6	4ff\	.	(8a\L	.	.	.	.	.	.	.
.	.	.	.	8b-\J)	.	.	.	.	.	.	.
!	!	!LO:LB:g=original	!	!	!	!	!	!	!	!	!
=23	=23	=23	=23	=23	=23	=23	=23	=23	=23	=23	=23
4G\	6	8r	.	(16b-\KL	.	.	2.r	2.r	.	2.r	.
.	.	.	.	8.ee-\J)	.	.	.	.	.	.	.
.	.	8b-/	.	.	.	.	.	.	.	.	.
4F\	6 4	4b-/	.	(32dd\LLL	.	.	.	.	.	.	.
.	.	.	.	32cc\JJ	.	.	.	.	.	.	.
.	.	.	.	8.b-\J)	.	.	.	.	.	.	.
4FF/	5 3	4at/	.	4ccT\	.	.	.	.	.	.	.
!	!	!	!	!LO:LB:g=original	!	!	!	!	!	!LO:LB:g=original	!
=24	=24	=24	=24	=24	=24	=24	=24	=24	=24	=24	=24
16B-\LL	.	4b-/	.	(16dd\LL	.	.	8r	2bb-\	.	2ddd\	.
16A\	.	.	.	16cc\	.	.	.	.	.	.	.
16B-\	.	.	.	16dd\	.	.	16f/LL	.	.	.	.
16c\JJ	.	.	.	16ee-\JJ)	.	.	16f/JJ	.	.	.	.
8B-\L	.	4r	.	8dd\L	.	.	8f/L	.	.	.	.
8d\J	.	.	.	8ff\	.	.	8f/	.	.	.	.
8F\L	.	4r	.	8a\	.	.	8f/	4aa\	.	4ccc\	.
8A\J	.	.	.	8cc\J	.	.	8f/J	.	.	.	.
=25	=25	=25	=25	=25	=25	=25	=25	=25	=25	=25	=25
16B-\LL	.	(16dd\LL	.	4f/	.	8r	4f/	2dd\	.	2bb-\	.
16A\	.	16cc\	.	.	.	.	.	.	.	.	.
16B-\	.	16dd\	.	.	.	16f/LL	.	.	.	.	.
16c\JJ	.	16ee-\JJ)	.	.	.	16f/JJ	.	.	.	.	.
8B-\L	.	8dd\L	.	4r	.	8f/L	4r	.	.	.	.
8d\J	.	8ff\	.	.	.	8f/	.	.	.	.	.
8F\L	.	8a\	.	4r	.	8f/	4r	4cc\	.	4aa\	.
8A\J	.	8cc\J	.	.	.	8f/J	.	.	.	.	.
=26	=26	=26	=26	=26	=26	=26	=26	=26	=26	=26	=26
16G\LL	5	4d/	.	(16b-\LL	.	4d/	8r	2gg\	.	2bb-\	.
16F\	.	.	.	16a\	.	.	.	.	.	.	.
16G\	.	.	.	16b-\	.	.	16d/LL	.	.	.	.
16A\JJ	.	.	.	16cc\JJ)	.	.	16d/JJ	.	.	.	.
8G\L	.	4r	.	8b-\L	.	4r	8d/L	.	.	.	.
8B-\J	.	.	.	8dd\	.	.	8d/	.	.	.	.
8D\L	.	4r	.	8f\	.	4r	8d/	4ff\	.	4aa\	.
8F\J	.	.	.	8a\J	.	.	8d/J	.	.	.	.
!LO:LB:g=original	!	!	!	!	!	!	!LO:LB:g=original	!	!	!	!
=27	=27	=27	=27	=27	=27	=27	=27	=27	=27	=27	=27
16G\LL	.	(16b-\LL	.	4d/	.	8r	4d/	2b-/	.	2gg\	.
16F\	.	16a\	.	.	.	.	.	.	.	.	.
16G\	.	16b-\	.	.	.	16d/LL	.	.	.	.	.
16A\JJ	.	16cc\JJ)	.	.	.	16d/JJ	.	.	.	.	.
!	!	!LO:TX:t=P:problem:mixed beam	!	!	!	!	!	!	!	!	!
8G\L	.	8b-\L	.	4r	.	8d/L	4r	.	.	.	.
8B-\J	.	8dd\	.	.	.	8d/	.	.	.	.	.
8D\L	.	8f/	.	4r	.	8d/	4r	4a/	.	4ff\	.
8F\J	.	8a/J	.	.	.	8d/J	.	.	.	.	.
=28	=28	=28	=28	=28	=28	=28	=28	=28	=28	=28	=28
16E-\LL	5	4B-/	.	(16g/LL	.	4B-/	8r	2ee-\	.	2gg\	.
16D\	.	.	.	16f/	.	.	.	.	.	.	.
16E-\	.	.	.	16g/	.	.	16B-/LL	.	.	.	.
16F\JJ	.	.	.	16a-X/JJ)	.	.	16B-/JJ	.	.	.	.
8E-\L	.	4r	.	8g/L	.	4r	8B-/L	.	.	.	.
8G\J	.	.	.	8b-/	.	.	8B-/	.	.	.	.
8BB-/L	.	4r	.	8d/	.	4r	8B-/	4dd\	.	4ff\	.
8D/J	.	.	.	8f/J	.	.	8B-/J	.	.	.	.
!	!	!LO:LB:g=original	!	!	!	!	!	!	!	!	!
=29	=29	=29	=29	=29	=29	=29	=29	=29	=29	=29	=29
.	.	.	.	.	.	.	.	.	.	8qqff/	.
16E-\LL	.	(16g/LL	.	4B-/	.	8r	4B-/	2g/	.	2ee-\	.
16D\	.	16f/	.	.	.	.	.	.	.	.	.
16E-\	.	16g/	.	.	.	16B-/LL	.	.	.	.	.
16F\JJ	.	16a-X/JJ)	.	.	.	16B-/JJ	.	.	.	.	.
8E-\L	.	8g/L	.	4r	.	8B-/L	4r	.	.	.	.
8G\J	.	8b-/	.	.	.	8B-/	.	.	.	.	.
8BB-/L	.	8d/	.	4r	.	8B-/	4r	4f/	.	4dd\	.
8D/J	.	8f/J	.	.	.	8B-/J	.	.	.	.	.
!	!	!	!	!	!	!LO:LB:g=original	!	!LO:LB:g=original	!	!	!
=30	=30	=30	=30	=30	=30	=30	=30	=30	=30	=30	=30
4C/	.	(16c/LL	.	(16e-/LL	.	4r	4r	2.g/	.	2.ee-\	.
.	.	16B-/	.	16d/	.	.	.	.	.	.	.
.	.	16c/	.	16e-/	.	.	.	.	.	.	.
.	.	16d/JJ)	.	16f/JJ)	.	.	.	.	.	.	.
4C/	.	4c/	.	4e-/	.	16cc\LL	16ee-\LL	.	.	.	.
.	.	.	.	.	.	16b-\	16dd\	.	.	.	.
.	.	.	.	.	.	16cc\	16ee-\	.	.	.	.
.	.	.	.	.	.	16dd\JJ	16ff\JJ	.	.	.	.
4BB-/	4 2	4r	.	4r	.	4cc\	4ee-\	.	.	.	.
!	!	!	!	!LO:LB:g=original	!	!	!	!	!	!	!
=31	=31	=31	=31	=31	=31	=31	=31	=31	=31	=31	=31
4AA/	6 5	(16cc\LL	.	(16ee-\LL	.	4r	4r	2.f/	.	2.ccc\	.
.	.	16b-\	.	16dd\	.	.	.	.	.	.	.
.	.	16cc\	.	16ee-\	.	.	.	.	.	.	.
.	.	16dd\JJ)	.	16ff\JJ)	.	.	.	.	.	.	.
4AA/	.	4cc\	.	4ee-\	.	16cc\LL	16ee-\LL	.	.	.	.
.	.	.	.	.	.	16b-\	16dd\	.	.	.	.
.	.	.	.	.	.	16cc\	16ee-\	.	.	.	.
.	.	.	.	.	.	16dd\JJ	16ff\JJ	.	.	.	.
4AA/	.	4r	.	4r	.	4cc\	4ee-\	.	.	.	.
=32	=32	=32	=32	=32	=32	=32	=32	=32	=32	=32	=32
!LO:TX:t=P:problem:mixed beam	!	!	!	!	!	!	!	!	!	!	!
8BB-\L	.	4b-/	.	(32dd\LLL	.	4b-\	4dd\	4f/	.	8.bb-\L	.
.	.	.	.	32cc\JJ	.	.	.	.	.	.	.
.	.	.	.	8.b-\J)	.	.	.	.	.	.	.
8D\	.	.	.	.	.	.	.	.	.	.	.
.	.	.	.	.	.	.	.	.	.	16b-\Jk	.
.	.	.	.	8qqdd/	.	.	.	.	.	.	.
*	*	*	*	*2\right	*	*	*	*	*	*	*
8F\	.	2at/	.	2ccT\	.	4.f/	2ccT\	2at/	.	2ccT\	.
8E-\	.	.	.	.	.	.	.	.	.	.	.
8F\	.	.	.	.	.	.	.	.	.	.	.
8FF/J	.	.	.	.	.	8f/	.	.	.	.	.
!LO:LB:g=original	!	!	!	!	!	!	!	!	!	!	!
=33	=33	=33	=33	=33	=33	=33	=33	=33	=33	=33	=33
16B-\LL	.	2b-/	.	2b-\	.	8d\L	8b-\L	2b-\	.	2b-\	.
16A\	.	.	.	.	.	.	.	.	.	.	.
16B-\	.	.	.	.	.	16b-\L	16b-\L	.	.	.	.
16c\JJ	.	.	.	.	.	16cc\JJ	16cc\JJ	.	.	.	.
8B-\L|	.	.	.	.	.	8b-\L	8b-\L|	.	.	.	.
8F\|	.	.	.	.	.	8f\	8f\|	.	.	.	.
8D\|	.	4r	.	4r	.	8d\	8d\|	4r	.	4r	.
8F\J|	.	.	.	.	.	8f\J	8f\J|	.	.	.	.
!	!	!	!	!	!	!	!LO:LB:g=original	!	!	!LO:LB:g=original	!
=34	=34	=34	=34	=34	=34	=34	=34	=34	=34	=34	=34
!	!	!LO:TX:a:t=4.	!	!LO:TX:a:t=4.	!	!	!	!LO:TX:a:t=1.	!	!LO:TX:b:rj:t=Solo	!
4.BB-/	.	0.r	.	0.r	.	4B-/	4d/	2.r	.	(16dd\LL	.
.	.	.	.	.	.	.	.	.	.	16cc\	.
.	.	.	.	.	.	.	.	.	.	16dd\	.
.	.	.	.	.	.	.	.	.	.	16ee-\JJ)	.
.	.	.	.	.	.	4r	4r	.	.	8dd\L	.
8C/L	.	.	.	.	.	.	.	.	.	8ff\J	.
8D/	6	.	.	.	.	4r	4r	.	.	(32b-\LLL	.
.	.	.	.	.	.	.	.	.	.	32cc\JJ	.
.	.	.	.	.	.	.	.	.	.	8.dd\J)	.
8BB-/J	.	.	.	.	.	.	.	.	.	.	.
=35	=35	=35	=35	=35	=35	=35	=35	=35	=35	=35	=35
!	!	!	!	!	!	!LO:TX:a:t=14.	!LO:TX:a:t=13.	!	!	!LO:TX:t=P:problem:mixed beam	!
.	.	.	.	.	.	.	.	.	.	8qqdd/	.
!	!	!	!	!	!	!	!	!LO:TX:b:i:t=Solo&colon;	!	!	!
4.F\	.	.	.	.	.	0.r	0.r	(16a/LL	.	8cc\L	.
.	.	.	.	.	.	.	.	16g/	.	.	.
.	.	.	.	.	.	.	.	16a/	.	8en/J	.
.	.	.	.	.	.	.	.	16b-/JJ)	.	.	.
.	.	.	.	.	.	.	.	.	.	8qqe/	.
.	.	.	.	.	.	.	.	8a\L	.	4f/	.
8G\L	.	.	.	.	.	.	.	8cc\J	.	.	.
8A\	6	.	.	.	.	.	.	(32f/LLL	.	4r	.
.	.	.	.	.	.	.	.	32g/JJ	.	.	.
.	.	.	.	.	.	.	.	8.a/J)	.	.	.
8F\J	.	.	.	.	.	.	.	.	.	.	.
=36	=36	=36	=36	=36	=36	=36	=36	=36	=36	=36	=36
4.C\	.	.	.	.	.	.	.	4g/	.	(16ee-X\LL	.
.	.	.	.	.	.	.	.	.	.	16dd\	.
.	.	.	.	.	.	.	.	.	.	16ee-\	.
.	.	.	.	.	.	.	.	.	.	16ff\JJ)	.
.	.	.	.	.	.	.	.	4c/	.	8ee-\L	.
8D\L	.	.	.	.	.	.	.	.	.	8gg\J	.
8E-\	6	.	.	.	.	.	.	4r	.	(32cc\LLL	.
.	.	.	.	.	.	.	.	.	.	32dd\JJ	.
.	.	.	.	.	.	.	.	.	.	8.ee-\J)	.
8C\J	.	.	.	.	.	.	.	.	.	.	.
=37	=37	=37	=37	=37	=37	=37	=37	=37	=37	=37	=37
!	!	!	!	!	!	!	!	!	!	!LO:TX:t=P:problem:mixed beam	!
.	.	.	.	.	.	.	.	.	.	8qqee-/	.
4.G\	n	.	.	.	.	.	.	(16bn\LL	.	8dd\L	.
.	.	.	.	.	.	.	.	16a\	.	.	.
.	.	.	.	.	.	.	.	16b\	.	8f#X/J	.
.	.	.	.	.	.	.	.	16cc\JJ)	.	.	.
.	.	.	.	.	.	.	.	.	.	8qqf#/	.
.	.	.	.	.	.	.	.	8b\L	.	4g/	.
8A\L	.	.	.	.	.	.	.	8dd\J	.	.	.
8Bn\	6	.	.	.	.	.	.	(32g/LLL	.	4r	.
.	.	.	.	.	.	.	.	32a/JJ	.	.	.
.	.	.	.	.	.	.	.	8.bn/J)	.	.	.
8G\J	.	.	.	.	.	.	.	.	.	.	.
!	!	!	!	!	!	!	!	!LO:LB:g=original	!	!	!
=38	=38	=38	=38	=38	=38	=38	=38	=38	=38	=38	=38
!	!	!	!	!	!	!	!	!LO:TX:t=P:problem:mixed beam	!	!	!
4GG/	6 4	8r	.	(16e-/LL	.	.	.	8.cc\L	.	8r	.
.	.	.	.	16d/	.	.	.	.	.	.	.
.	.	16r	.	16e-/)	.	.	.	.	.	16r	.
.	.	16e-/	.	16cc/JJ|	.	.	.	16e-/Jk	.	16cc\|	.
4GG/	.	(4.e-/	.	(4.cc\	.	.	.	(4.e-/	.	(4.cc\	.
4GG/	5 n	.	.	.	.	.	.	.	.	.	.
.	.	8d/)	.	8bn\)	.	.	.	8d/)	.	8bn\)	.
!	!	!LO:LB:g=original	!	!	!	!	!	!	!	!LO:LB:g=original	!
=39	=39	=39	=39	=39	=39	=39	=39	=39	=39	=39	=39
4GG/	6 4	(16e-/LL	.	(16g/LL	.	0.r	0.r	8r	.	8r	.
.	.	16d/	.	16f/	.	.	.	.	.	.	.
.	.	16e-/)	.	16g/)	.	.	.	16r	.	16r	.
.	.	16cc/JJ|	.	16ee-/JJ|	.	.	.	16cc\|	.	16ee-\|	.
4GG/	.	(4.cc\	.	(4.ee-\	.	.	.	(4.cc\	.	(4.ee-\	.
4GG/	5 n	.	.	.	.	.	.	.	.	.	.
.	.	8bn\)	.	8dd\)	.	.	.	8bn\)	.	8dd\)	.
=40	=40	=40	=40	=40	=40	=40	=40	=40	=40	=40	=40
!	!	!	!	!	!LO:DY:rj:t=p&colon;	!	!	!	!	!	!
4GG/	6 4	(16g/LL	.	(16e-/LL	p	.	.	8r	.	8r	.
.	.	16f/	.	16d/	.	.	.	.	.	.	.
!	!	!	!LO:DY:t=pia	!	!	!	!	!	!	!	!LO:DY:t=po
.	.	16g/)	p	16e-/)	.	.	.	16r	.	16r	p
!	!	!	!	!	!	!	!	!	!LO:DY:t=p&colon;	!	!
.	.	16ee-/JJ|	.	16cc/JJ|	.	.	.	16e-/|	p	16cc\|	.
4GG/	.	(4.ee-\	.	(4.cc\	.	.	.	(4.e-/	.	(4.cc\	.
4GG/	5 n	.	.	.	.	.	.	.	.	.	.
.	.	8dd\)	.	8bn\)	.	.	.	8d/)	.	8bn\)	.
!LO:LB:g=original	!	!	!	!LO:LB:g=original	!	!	!	!	!	!	!
=41	=41	=41	=41	=41	=41	=41	=41	=41	=41	=41	=41
4GG/	6 4	(16e-/LL	.	(16g/LL	.	.	.	8r	.	8r	.
.	.	16d/	.	16f/	.	.	.	.	.	.	.
.	.	16e-/)	.	16g/)	.	.	.	16r	.	16r	.
.	.	16cc/JJ|	.	16ee-/JJ|	.	.	.	16cc\|	.	16ee-\|	.
4GG/	.	(4.cc\	.	(4.ee-\	.	.	.	(4.cc\	.	(4.ee-\	.
4GG/	5 n	.	.	.	.	.	.	.	.	.	.
.	.	8bn\)	.	8dd\)	.	.	.	8bn\)	.	8dd\)	.
=42	=42	=42	=42	=42	=42	=42	=42	=42	=42	=42	=42
!	!	!	!LO:DY:t=pia	!	!LO:DY:t=for&colon;	!	!	!LO:TX:a:t=3.	!	!LO:TX:a:t=3.	!
4r	.	4r	f	12f/L|	f	.	.	1.r	.	1.r	.
.	.	.	.	12a-X/|	.	.	.	.	.	.	.
.	.	.	.	12cc/J|	.	.	.	.	.	.	.
4A-X\|	6	12f/L|	.	12a-X/L|	.	.	.	.	.	.	.
.	.	12a-X/|	.	12f/|	.	.	.	.	.	.	.
.	.	12cc/J|	.	12d/J|	.	.	.	.	.	.	.
.	.	8qqcc/	.	.	.	.	.	.	.	.	.
4G\|	6	4b-/	.	(8d/L	.	.	.	.	.	.	.
.	.	.	.	8e-/J)	.	.	.	.	.	.	.
=43	=43	=43	=43	=43	=43	=43	=43	=43	=43	=43	=43
4r	.	4r	.	12d-X/L|	.	0.r	0.r	.	.	.	.
.	.	.	.	12f/|	.	.	.	.	.	.	.
.	.	.	.	12a-X/J|	.	.	.	.	.	.	.
4F\|	-6r -	12d-X/L|	.	12f/L|	.	.	.	.	.	.	.
.	.	12f/|	.	12d-X/|	.	.	.	.	.	.	.
.	.	12a-X/J|	.	12Bn/J|	.	.	.	.	.	.	.
.	.	8qqa-/	.	.	.	.	.	.	.	.	.
4E-\|	6	4g/	.	(8B/L	.	.	.	.	.	.	.
.	.	.	.	8c/J)	.	.	.	.	.	.	.
!	!	!LO:LB:g=original	!	!	!	!	!	!	!	!	!
=44	=44	=44	=44	=44	=44	=44	=44	=44	=44	=44	=44
*	*	*tuplet	*	*tuplet	*	*	*	*	*	*	*
!	!	!LO:TUP:a:problem:klamra łukowa	!	!LO:TUP:a:problem:klamra łukowa	!	!	!	!	!	!	!
4F\	6 5 -	24cc\LL	.	24aa-X\LL	.	.	.	2.r	.	2.r	.
.	.	24b-\	.	24gg\	.	.	.	.	.	.	.
.	.	24a-X\JJ	.	24ff\JJ	.	.	.	.	.	.	.
.	.	.	.	8qqgg/	.	.	.	.	.	.	.
!	!	!LO:TUP:b:problem:klamra łukowa	!	!LO:TUP:a:problem:klamra łukowa	!	!	!	!	!	!	!
.	.	24a-/LL	.	24ff\LL	.	.	.	.	.	.	.
.	.	24g/	.	24ee-\	.	.	.	.	.	.	.
.	.	24f/JJ	.	24dd\JJ	.	.	.	.	.	.	.
4G\	6 4	4e-/	.	4cc\	.	.	.	.	.	.	.
4GG/	5 n	4dt/	.	4bnt\	.	.	.	.	.	.	.
=45	=45	=45	=45	=45	=45	=45	=45	=45	=45	=45	=45
!	!	!	!	!	!	!	!	!LO:TX:b:i:t=Solo.	!	!LO:TX:a:i:t=Solo.	!LO:DY:rj:t=for
2C/	.	4c/	.	4cc\	.	.	.	2e-/	.	8cc\L	f
.	.	.	.	.	.	.	.	.	.	8dd\J	.
.	.	.	.	.	.	.	.	.	.	16qqcc\LL	.
.	.	.	.	.	.	.	.	.	.	16qqdd\JJ	.
.	.	4r	.	4r	.	.	.	.	.	[2ee-\	.
8D\L	7 4	4r	.	4r	.	.	.	8f/L	.	.	.
8E-\J	.	.	.	.	.	.	.	8g/J	.	.	.
=46	=46	=46	=46	=46	=46	=46	=46	=46	=46	=46	=46
!	!	!LO:TX:a:t=3.	!	!LO:TX:a:t=3.	!	!	!	!	!	!	!
4F\	7 4	1.r	.	1.r	.	.	.	4.f/	.	8ee-\L]	.
.	.	.	.	.	.	.	.	.	.	8an\	.
4D/	6	.	.	.	.	.	.	.	.	8b-\	.
.	.	.	.	.	.	.	.	8f/L	.	8a-X\	.
4BB-/	-7r	.	.	.	.	.	.	8e-/	.	8g\	.
.	.	.	.	.	.	.	.	8d/J	.	8f\J	.
!	!	!	!	!	!	!	!	!	!	!LO:LB:g=original	!
=47	=47	=47	=47	=47	=47	=47	=47	=47	=47	=47	=47
4E-\	.	.	.	.	.	1.r	2.r	(32e-/LLL	.	(32g/LLL	.
.	.	.	.	.	.	.	.	32f/JJ	.	32a-X/JJ	.
.	.	.	.	.	.	.	.	8.g/J)	.	8.b-/J)	.
!	!	!	!	!	!	!	!	!LO:LB:g=original	!	!	!
2AA-X/	9 7	.	.	.	.	.	.	(4g/	.	(4b-/	.
.	8 6	.	.	.	.	.	.	8.f/L)	.	8.a-X/L)	.
.	.	.	.	.	.	.	.	16e-/Jk	.	16g/Jk|	.
=48	=48	=48	=48	=48	=48	=48	=48	=48	=48	=48	=48
4BB-/	6 4	2.r	.	2.r	.	.	8r	(8g/L	.	(8ee-\L	.
.	.	.	.	.	.	.	16B-/LL	8f/J)	.	8dd\J)	.
.	.	.	.	.	.	.	16B-/JJ	.	.	.	.
16B-\LL	5 3	.	.	.	.	.	8B-/L	4f/	.	4dd\	.
16An\	.	.	.	.	.	.	.	.	.	.	.
16B-\	.	.	.	.	.	.	8B-/	.	.	.	.
16c\JJ	.	.	.	.	.	.	.	.	.	.	.
16B-\LL	.	.	.	.	.	.	8B-/	4r	.	4r	.
16A\	.	.	.	.	.	.	.	.	.	.	.
16B-\	.	.	.	.	.	.	8B-/J	.	.	.	.
16c\JJ	.	.	.	.	.	.	.	.	.	.	.
!LO:LB:g=original	!	!	!	!LO:LB:g=original	!	!	!	!	!	!	!
=49	=49	=49	=49	=49	=49	=49	=49	=49	=49	=49	=49
!	!	!	!	!	!	!	!	!LO:TX:a:t=2.	!	!LO:TX:a:t=2.	!
4B-\	6 4	8r	.	(16g/LL	.	8r	4B-/	1.r	.	1.r	.
.	.	.	.	16f/	.	.	.	.	.	.	.
.	.	16r	.	16g/)	.	16B-/LL	.	.	.	.	.
.	.	16g/	.	16ee-/JJ|	.	16B-/JJ	.	.	.	.	.
4BB-/	.	(4.g/	.	(4.ee-\	.	8B-/L	4r	.	.	.	.
.	.	.	.	.	.	8B-/	.	.	.	.	.
4BB-/	5 3	.	.	.	.	8B-/	4r	.	.	.	.
.	.	8f/)	.	8dd\)	.	8B-/J	.	.	.	.	.
=50	=50	=50	=50	=50	=50	=50	=50	=50	=50	=50	=50
4BB-/	6 4	(16g/LL	.	(16b-\LL	.	4B-/	8r	.	.	.	.
.	.	16f/	.	16a\	.	.	.	.	.	.	.
.	.	16g/)	.	16b-\)	.	.	16B-/LL	.	.	.	.
.	.	16ee-/JJ|	.	16gg\JJ|	.	.	16B-/JJ	.	.	.	.
4BB-/	.	(4.ee-\	.	(4.gg\	.	4r	8B-/L	.	.	.	.
.	.	.	.	.	.	.	8B-/	.	.	.	.
4BB-/	5 3	.	.	.	.	4r	8B-/	.	.	.	.
.	.	8dd\)	.	8ff\)	.	.	8B-/J	.	.	.	.
!	!	!	!	!	!	!LO:LB:g=original	!	!	!	!	!
=51	=51	=51	=51	=51	=51	=51	=51	=51	=51	=51	=51
!	!	!	!	!	!LO:DY:t=pia	!	!	!	!	!	!
4BB-/	6 4	(16b-\LL	.	(16g/LL	p	8r	4B-/	8r	.	8r	.
.	.	16a\	.	16f/	.	.	.	.	.	.	.
!	!	!	!LO:DY:t=pia	!	!	!	!	!	!	!	!
.	.	16b-\)	p	16g/)	.	16B-/LL	.	16r	.	16r	.
.	.	16gg\JJ|	.	16ee-/JJ|	.	16B-/JJ	.	16g/|	.	16ee-\|	.
4BB-/	.	(4.gg\	.	(4.ee-\	.	8B-/L	4r	(4.g/	.	(4.ee-\	.
.	.	.	.	.	.	8B-/	.	.	.	.	.
4BB-/	5 3	.	.	.	.	8B-/	4r	.	.	.	.
.	.	8ff\)	.	8dd\)	.	8B-/J	.	8f/)	.	8dd\)	.
!	!	!LO:LB:g=original	!	!	!	!	!	!	!	!	!
=52	=52	=52	=52	=52	=52	=52	=52	=52	=52	=52	=52
4BB-/	6 4	(16g/LL	.	(16b-\LL	.	4B-/	8r	8r	.	8r	.
.	.	16f/	.	16a\	.	.	.	.	.	.	.
.	.	16g/)	.	16b-\)	.	.	16B-/LL	16r	.	16r	.
.	.	16ee-/JJ|	.	16gg\JJ|	.	.	16B-/JJ	16ee-\|	.	16gg\|	.
4BB-/	.	(4.ee-\	.	(4.gg\	.	4r	8B-/L	(4.ee-\	.	(4.gg\	.
.	.	.	.	.	.	.	8B-/	.	.	.	.
4BB-/	5 3	.	.	.	.	4r	8B-/	.	.	.	.
.	.	8dd\)	.	8ff\)	.	.	8B-/J	8dd\)	.	8ff\)	.
!	!	!	!	!	!	!	!LO:LB:g=original	!	!	!	!
=53	=53	=53	=53	=53	=53	=53	=53	=53	=53	=53	=53
*	*	*	*	*Xtuplet	*	*	*	*	*	*	*
!	!	!	!LO:DY:t=for	!	!LO:DY:rj:t=f&colon;	!LO:TX:a:t=2.	!LO:TX:a:t=2.	!LO:TX:a:t=3.	!	!LO:TX:a:t=3.	!
4r	.	4r	f	12a-X\L|	f	1.r	1.r	1.r	.	1.r	.
.	.	.	.	12cc\|	.	.	.	.	.	.	.
.	.	.	.	12ee-\J|	.	.	.	.	.	.	.
*	*	*Xtuplet	*	*	*	*	*	*	*	*	*
4c\|	-6	12a-X\L|	.	12cc\L|	.	.	.	.	.	.	.
.	.	12cc\|	.	12a-X\|	.	.	.	.	.	.	.
.	.	12ee-\J|	.	12f#X\J|	.	.	.	.	.	.	.
.	.	8qqee-/	.	.	.	.	.	.	.	.	.
4B-\|	6	4dd\	.	(8f#/L	.	.	.	.	.	.	.
.	.	.	.	8g/J)	.	.	.	.	.	.	.
=54	=54	=54	=54	=54	=54	=54	=54	=54	=54	=54	=54
4r	.	4r	.	12fn/L|	.	.	.	.	.	.	.
.	.	.	.	12a-X/|	.	.	.	.	.	.	.
.	.	.	.	12cc/J|	.	.	.	.	.	.	.
4A-X\|	6	12f/L|	.	12a-/L|	.	.	.	.	.	.	.
.	.	12a-X/|	.	12f/|	.	.	.	.	.	.	.
.	.	12cc/J|	.	12d/J|	.	.	.	.	.	.	.
.	.	8qqcc/	.	.	.	.	.	.	.	.	.
4G\|	6	4b-/	.	(8d/L	.	.	.	.	.	.	.
.	.	.	.	8e-/J)	.	.	.	.	.	.	.
!	!	!	!	!LO:LB:g=original	!	!	!	!	!	!	!
=55	=55	=55	=55	=55	=55	=55	=55	=55	=55	=55	=55
!	!	!LO:TX:t=P:problem:mixed beam	!	!	!	!	!	!	!	!	!
4AA-X/	6 5	16e-/LL	.	16cc\LL|	.	4r	4r	2.r	.	2.r	.
.	.	(16cc\	.	(16aa-X\	.	.	.	.	.	.	.
.	.	16b-\	.	16gg\	.	.	.	.	.	.	.
.	.	16ee-\JJ)	.	16ff\JJ)	.	.	.	.	.	.	.
.	.	8qqee-/	.	8qqee-/	.	.	.	.	.	.	.
*	*	*2\right	*	*	*	*	*	*	*	*	*
4BB-/	.	2ddt\	.	2ffT\	.	8B-/L	8B-/L	.	.	.	.
.	.	.	.	.	.	8B-/	8B-/	.	.	.	.
4BB-/	.	.	.	.	.	8B-/	8B-/	.	.	.	.
.	.	.	.	.	.	8B-/J	8B-/J	.	.	.	.
=56	=56	=56	=56	=56	=56	=56	=56	=56	=56	=56	=56
4EE-/	.	4ee-\	.	4ee-\	.	4B-/	4B-/	8r	.	8r	.
.	.	.	.	.	.	.	.	16r	.	16r	.
!	!	!	!	!	!	!	!	!LO:TX:b:i:t=Solo.	!	!LO:TX:b:i:t=Solo.	!
.	.	.	.	.	.	.	.	16g/	.	16b-\	.
.	.	.	.	.	.	.	.	.	.	8qqcc/	.
4E-\	.	4r	.	4r	.	4r	4r	2gT/	.	2b-T\	.
4D-X/	4 2	4r	.	4r	.	4r	4r	.	.	.	.
=57	=57	=57	=57	=57	=57	=57	=57	=57	=57	=57	=57
!	!	!LO:TX:a:t=4.	!	!LO:TX:a:t=3.	!	!LO:TX:a:t=2.	!LO:TX:a:t=2.	!	!	!	!
4C/	7 n	0.r	.	1.r	.	1.r	1.r	(16g/LL	.	(16b-\LL	.
.	.	.	.	.	.	.	.	16a-X/JJ	.	16cc\JJ	.
.	.	.	.	.	.	.	.	4b-/)	.	4dd-X\)	.
4C/	.	.	.	.	.	.	.	.	.	.	.
.	.	.	.	.	.	.	.	16a-/LL	.	16cc\LL	.
.	.	.	.	.	.	.	.	16g/JJ	.	16b-\JJ	.
4C/	.	.	.	.	.	.	.	8f/L	.	8a-X/L	.
.	.	.	.	.	.	.	.	8en/J	.	8g/J	.
!LO:LB:g=original	!	!	!	!	!	!	!	!LO:LB:g=original	!	!LO:LB:g=original	!
=58	=58	=58	=58	=58	=58	=58	=58	=58	=58	=58	=58
4FF/	-	.	.	.	.	.	.	(16f/LL	.	(16a-X/LL	.
.	.	.	.	.	.	.	.	16en/	.	16g/	.
.	.	.	.	.	.	.	.	16f/	.	16a-/	.
.	.	.	.	.	.	.	.	16g/JJ)	.	16b-/JJ)	.
4F\	.	.	.	.	.	.	.	2a-X/	.	2cc\	.
4E-\	-4r 2	.	.	.	.	.	.	.	.	.	.
=59	=59	=59	=59	=59	=59	=59	=59	=59	=59	=59	=59
4Dn\	7 #	.	.	2.r	.	4r	4r	(16an\LL	.	(16cc\LL	.
.	.	.	.	.	.	.	.	16b-\JJ	.	16ddn\JJ)	.
.	.	.	.	.	.	.	.	4cc\)	.	4ee-\	.
4D\	.	.	.	.	.	8d/L	8d/L	.	.	.	.
.	.	.	.	.	.	8d/	8d/	16b-\LL	.	16dd\LL	.
.	.	.	.	.	.	.	.	16a\JJ	.	16cc\JJ	.
4D\	.	.	.	.	.	8d/	8d/	8g/L	.	8b-/L	.
.	.	.	.	.	.	8d/J	8d/J	8f#X/J	.	8an/J	.
=60	=60	=60	=60	=60	=60	=60	=60	=60	=60	=60	=60
8G\L	.	.	.	4r	.	4d/	4d/	4g/	.	(32b-/LLL	.
.	.	.	.	.	.	.	.	.	.	32a/JJ	.
.	.	.	.	.	.	.	.	.	.	8.g/J)	.
8A\	.	.	.	.	.	.	.	.	.	.	.
8B-\	6	.	.	[2bb-\	.	4r	4r	4r	.	[2bb-\	.
8c\	.	.	.	.	.	.	.	.	.	.	.
8B-\	.	.	.	.	.	4r	4r	4r	.	.	.
8A\J	.	.	.	.	.	.	.	.	.	.	.
=61	=61	=61	=61	=61	=61	=61	=61	=61	=61	=61	=61
!	!	!	!	!	!	!LO:TX:a:t=5.	!LO:TX:a:t=4.	!	!	!	!
4.G\	.	4r	.	8bb-\L]	.	0.r	0.r	4r	.	8bb-\L]	.
.	.	.	.	8aa\J	.	.	.	.	.	8aa\J	.
.	.	8bb-\L	.	4.gg\	.	.	.	8bb-\L	.	4.gg\	.
8F\	.	8aa\J	.	.	.	.	.	8aa\J	.	.	.
[4E-\	.	[4gg\	.	.	.	.	.	[4gg\	.	.	.
.	.	.	.	8ff\	.	.	.	.	.	8ff\	.
!	!	!LO:LB:g=original	!	!	!	!	!	!	!	!	!
=62	=62	=62	=62	=62	=62	=62	=62	=62	=62	=62	=62
.	.	.	.	8qqff/	.	.	.	.	.	8qqff/	.
8E-\L]	.	8gg\L]	.	4.ee-\	.	.	.	8gg\L]	.	4.ee-\	.
8D\J	.	8ff\J	.	.	.	.	.	8ff\J	.	.	.
.	.	8qqff/	.	.	.	.	.	8qqff/	.	.	.
4C/	5	4.ee-\	.	.	.	.	.	4.ee-\	.	.	.
.	.	.	.	8dd\	.	.	.	.	.	8dd\	.
8c\L	.	.	.	[4cc\	.	.	.	.	.	[4cc\	.
8B-\J	.	8dd\	.	.	.	.	.	8dd\	.	.	.
=63	=63	=63	=63	=63	=63	=63	=63	=63	=63	=63	=63
[4A\	6	4.cc\	.	8cc\L]	.	.	.	4.cc\	.	8cc\L]	.
.	.	.	.	8b-\J	.	.	.	.	.	8b-\J	.
.	.	.	.	8qqb-/	.	.	.	.	.	.	.
8A\L]	.	.	.	4.a/	.	.	.	.	.	4.a/	.
8G\	.	8b-/	.	.	.	.	.	8b-\	.	.	.
8F#X\	6	[4a/	.	.	.	.	.	[4a/	.	.	.
8En\J	.	.	.	8g/	.	.	.	.	.	8g/	.
!LO:LB:g=original	!	!	!	!	!	!	!	!	!	!LO:LB:g=original	!
=64	=64	=64	=64	=64	=64	=64	=64	=64	=64	=64	=64
.	.	.	.	8qqg/	.	.	.	.	.	.	.
!	!	!LO:TX:t=P:problem:mixed beam	!	!	!	!	!	!	!	!	!
8D\L	#3	8a/L]	.	4f#X/	.	.	.	8a/L]	.	4f#X/	.
8d\J	.	8g/	.	.	.	.	.	8g/	.	.	.
8A\L|	.	8f#X/	.	4r	.	.	.	8f#X/J	.	4r	.
8B-\J|	.	8dd\	.	.	.	.	.	8r	.	.	.
8F#X\L|	.	8a\	.	4r	.	.	.	4r	.	4r	.
8G\J|	.	8b-\J	.	.	.	.	.	.	.	.	.
!	!	!	!	!LO:LB:g=original	!	!	!	!LO:LB:g=original	!	!	!
=65	=65	=65	=65	=65	=65	=65	=65	=65	=65	=65	=65
!	!	!	!	!	!	!	!	!LO:TX:a:t=1.	!	!	!
4D\	6 4	8r	.	(16B-/LL	.	2.r	8r	2.r	.	8r	.
.	.	.	.	16A/	.	.	.	.	.	.	.
.	.	16r	.	16B-/)	.	.	16d/LL	.	.	16r	.
.	.	16B-/|	.	16g/JJ|	.	.	16d/JJ	.	.	16g/|	.
4D\	.	(4.B-/	.	4.g/	.	.	8d/L	.	.	(4.g/	.
.	.	.	.	.	.	.	8d/	.	.	.	.
4D\	5 #	.	.	.	.	.	8d/	.	.	.	.
.	.	8A/)	.	8f#X/	.	.	8d/J	.	.	8f#X/)	.
=66	=66	=66	=66	=66	=66	=66	=66	=66	=66	=66	=66
4D\	6 4	(16B-/LL	.	(16d/LL	.	8r	4d/	8r	.	8r	.
.	.	16A/	.	16c/	.	.	.	.	.	.	.
.	.	16B-/)	.	16d/)	.	16d/LL	.	16r	.	16r	.
.	.	16g/JJ|	.	16b-/JJ|	.	16d/JJ	.	16g/|	.	16b-/|	.
4D\	.	(4.g/	.	(4.b-/	.	8d/L	4r	(4.g/	.	(4.b-/	.
.	.	.	.	.	.	8d/	.	.	.	.	.
4D\	5 #	.	.	.	.	8d/	4r	.	.	.	.
.	.	8f#X/)	.	8a/)	.	8d/J	.	8f#X/)	.	8a/)	.
!	!	!LO:LB:g=original	!	!	!	!LO:LB:g=original	!LO:LB:g=original	!	!	!	!
=67	=67	=67	=67	=67	=67	=67	=67	=67	=67	=67	=67
!	!	!	!LO:DY:rj:t=p&colon;	!	!	!	!	!	!	!	!
4D\	6 4	(16d/LL	p	(16b-\LL	.	4d/	8r	8r	.	8r	.
!	!	!	!	!	!LO:DY:t=pia&colon;	!	!	!	!	!	!
.	.	16c/	.	16a\	p	.	.	.	.	.	.
.	.	16d/)	.	16b-\)	.	.	16d/LL	16r	.	16r	.
!	!	!	!	!	!	!	!	!	!LO:DY:t=pia	!	!
.	.	16b-/JJ|	.	16gg\JJ|	.	.	16d/JJ	16b-/|	p	16gg\|	.
4D\	.	(4.b-/	.	(4.gg\	.	4r	8d/L	(4.b-/	.	(4.gg\	.
.	.	.	.	.	.	.	8d/	.	.	.	.
4D\	5 #	.	.	.	.	4r	8d/	.	.	.	.
.	.	8a/)	.	8ff#X\)	.	.	8d/J	8a/)	.	8ff#X\)	.
=68	=68	=68	=68	=68	=68	=68	=68	=68	=68	=68	=68
4D\	6 4	(16b-\LL	.	(16dd\LL	.	8r	4d/	8r	.	8r	.
.	.	16a\	.	16cc\	.	.	.	.	.	.	.
.	.	16b-\)	.	16dd\)	.	16d/LL	.	16r	.	16r	.
.	.	16gg\JJ|	.	16bb-\JJ|	.	16d/JJ	.	16gg\|	.	16bb-\|	.
4D\	.	(4.gg\	.	(4.bb-\	.	8d/L	4r	(4.gg\	.	(4.bb-\	.
.	.	.	.	.	.	8d/	.	.	.	.	.
4D\	5 #	.	.	.	.	8d/	4r	.	.	.	.
.	.	8ff#X\)	.	8aa\)	.	8d/J	.	8ff#X\)	.	8aa\)	.
=69	=69	=69	=69	=69	=69	=69	=69	=69	=69	=69	=69
!	!	!	!	!	!LO:DY:t=f&colon;	!LO:TX:a:t=2.	!LO:TX:a:t=2.	!LO:TX:a:t=2.	!	!LO:TX:a:t=2.	!
4r	.	4r	.	12cc\L|	f	1.r	1.r	1.r	.	1.r	.
.	.	.	.	12ee-\|	.	.	.	.	.	.	.
.	.	.	.	12gg\J|	.	.	.	.	.	.	.
!	!	!	!LO:DY:t=for&colon;	!	!	!	!	!	!	!	!
4E-\|	6	12cc\L|	f	12ee-\L|	.	.	.	.	.	.	.
.	.	12ee-\|	.	12cc\|	.	.	.	.	.	.	.
.	.	12gg\J|	.	12a\J|	.	.	.	.	.	.	.
.	.	8qqgg/	.	.	.	.	.	.	.	.	.
4D/|	6	4ffn\	.	(8a/L	.	.	.	.	.	.	.
.	.	.	.	8b-/J)	.	.	.	.	.	.	.
!	!	!	!	!LO:LB:g=original	!	!	!	!	!	!	!
=70	=70	=70	=70	=70	=70	=70	=70	=70	=70	=70	=70
4r	.	4r	.	12a-X\L|	.	.	.	.	.	.	.
.	.	.	.	12cc\|	.	.	.	.	.	.	.
.	.	.	.	12ee-\J|	.	.	.	.	.	.	.
4C/|	-6	12a-X\L|	.	12cc\L|	.	.	.	.	.	.	.
.	.	12cc\|	.	12a-X\|	.	.	.	.	.	.	.
.	.	12ee-\J|	.	12f#X\J|	.	.	.	.	.	.	.
.	.	8qqee-/	.	.	.	.	.	.	.	.	.
4BB-/|	6	4dd\	.	(8f#/L	.	.	.	.	.	.	.
.	.	.	.	8g/J)	.	.	.	.	.	.	.
!LO:LB:g=original	!	!	!	!	!	!	!	!	!	!	!
=71	=71	=71	=71	=71	=71	=71	=71	=71	=71	=71	=71
!	!	!	!	!	!	!	!	!	!LO:DY:t=for	!	!
4C\	6 5	16g/LL|	.	16ee-\LL|	.	4r	4r	16r	f	16r	.
!	!	!	!	!	!	!	!	!	!	!	!LO:DY:t=for
.	.	(16e-/	.	(16cc\	.	.	.	(16cc\LL	.	(16ee-\LL	f
.	.	16d/	.	16b-\	.	.	.	16b-\	.	16dd\	.
.	.	16c/JJ)	.	16an\JJ)	.	.	.	16a\JJ)	.	16cc\JJ)	.
4D\	6 4	4B-/	.	4g/	.	4d/	4d/	4g/	.	4b-/	.
4DD/	5 #	4At/	.	4f#Xt/	.	4d/	4d/	4f#Xt/	.	4at/	.
!	!	!LO:LB:g=original	!	!	!	!	!	!	!	!LO:LB:g=original	!
=72	=72	=72	=72	=72	=72	=72	=72	=72	=72	=72	=72
4GG/	.	4G/	.	4g/	.	4d/	4d/	4g/	.	4g/	.
!	!	!	!	!	!	!	!	!	!	!LO:TX:b:i:rj:t=Solo&colon;	!
4r	.	4r	.	4r	.	4r	4r	4r	.	4dd\	.
4r	.	4r	.	4r	.	4r	4r	4r	.	4dd\	.
!	!	!	!	!	!	!	!	!LO:LB:g=original	!	!	!
=73	=73	=73	=73	=73	=73	=73	=73	=73	=73	=73	=73
*	*	*	*	*	*	*	*	*	*	*Xtuplet	*
!	!	!	!	!	!	!LO:TX:a:t=8.	!LO:TX:a:t=8.	!	!	!	!
4r	.	4r	.	4r	.	0.r	0.r	4r	.	12bb-\L|	.
.	.	.	.	.	.	.	.	.	.	12gg\|	.
.	.	.	.	.	.	.	.	.	.	12een\J|	.
.	.	.	.	.	.	.	.	.	.	8qqdd/	.
*	*	*	*	*	*	*	*	*Xtuplet	*	*	*
!	!	!	!	!	!	!	!	!LO:TX:b:i:t=Solo	!	!	!
!	!	!	!LO:DY:t=pia&colon;	!	!LO:DY:t=pia	!	!	!	!	!	!
4G\	+4r 3	4en/	p	4b-/	p	.	.	12bb-\L|	.	2cc#X\	.
.	.	.	.	.	.	.	.	12gg\|	.	.	.
.	.	.	.	.	.	.	.	12een\J|	.	.	.
4G\	.	4e/	.	4b-/	.	.	.	4cc#X\	.	.	.
=74	=74	=74	=74	=74	=74	=74	=74	=74	=74	=74	=74
4r	.	4r	.	4r	.	.	.	4r	.	12aa\L|	.
.	.	.	.	.	.	.	.	.	.	12ccn\|	.
.	.	.	.	.	.	.	.	.	.	12ee-X\J|	.
.	.	.	.	.	.	.	.	.	.	8qqdd/	.
4F#X\	-7r n5r	4e-X/	.	4a/	.	.	.	12aa\L|	.	2cc\	.
.	.	.	.	.	.	.	.	12ccn\|	.	.	.
.	.	.	.	.	.	.	.	12ee-X\J|	.	.	.
.	.	.	.	.	.	.	.	8qqdd/	.	.	.
4F#\	.	4e-/	.	4a/	.	.	.	4cc\	.	.	.
=75	=75	=75	=75	=75	=75	=75	=75	=75	=75	=75	=75
4r	.	4r	.	4r	.	.	.	4r	.	12aa-X\L|	.
.	.	.	.	.	.	.	.	.	.	12ff\|	.
.	.	.	.	.	.	.	.	.	.	12dd\J|	.
.	.	.	.	.	.	.	.	.	.	8qqcc/	.
4Fn\	n4r -3	4d/	.	4a-X/	.	.	.	12aa-X\L|	.	2bn\	.
.	.	.	.	.	.	.	.	12ff\|	.	.	.
.	.	.	.	.	.	.	.	12dd\J|	.	.	.
.	.	.	.	.	.	.	.	8qqcc/	.	.	.
4F\	.	4d/	.	4a-/	.	.	.	4bn\	.	.	.
=76	=76	=76	=76	=76	=76	=76	=76	=76	=76	=76	=76
4r	.	4r	.	4r	.	.	.	4r	.	12gg\L|	.
.	.	.	.	.	.	.	.	.	.	12ee-\|	.
.	.	.	.	.	.	.	.	.	.	12bn\J|	.
.	.	.	.	.	.	.	.	.	.	8qqb/	.
4E-\	6	4e-/	.	4g/	.	.	.	12gg\L|	.	2cc\	.
.	.	.	.	.	.	.	.	12ee-\|	.	.	.
.	.	.	.	.	.	.	.	12bn\J|	.	.	.
.	.	.	.	.	.	.	.	8qqb/	.	.	.
4E-\	.	4e-/	.	4g/	.	.	.	4cc\	.	.	.
!	!	!	!	!LO:LB:g=original	!	!	!	!	!	!	!
=77	=77	=77	=77	=77	=77	=77	=77	=77	=77	=77	=77
!	!	!LO:TX:a:t=3.	!	!LO:TX:a:t=3.	!	!	!	!	!	!	!
.	.	.	.	.	.	.	.	.	.	8qqcc/	.
8r	.	1.r	.	1.r	.	0.r	0.r	4r	.	2.ff#X\	.
8e-\L	4	.	.	.	.	.	.	.	.	.	.
8d\	.	.	.	.	.	.	.	8r	.	.	.
8c\	.	.	.	.	.	.	.	8ee-\L	.	.	.
8B-\	.	.	.	.	.	.	.	8dd\	.	.	.
8A\J	.	.	.	.	.	.	.	8cc\J	.	.	.
!LO:LB:g=original	!	!	!	!	!	!	!	!	!	!	!
=78	=78	=78	=78	=78	=78	=78	=78	=78	=78	=78	=78
!LO:TX:t=P:problem:mixed beam	!	!	!	!	!	!	!	!	!	!	!
8GG/L	-	.	.	.	.	.	.	8b-\	.	[2.gg\	.
8G\	n	.	.	.	.	.	.	4bn\	.	.	.
8F\	n4r 2	.	.	.	.	.	.	.	.	.	.
8E-\	6	.	.	.	.	.	.	8cc\L	.	.	.
8D\	6\	.	.	.	.	.	.	8dd\	.	.	.
8C\J	5	.	.	.	.	.	.	8ee-\J	.	.	.
!	!	!	!	!	!	!	!	!LO:LB:g=original	!	!LO:LB:g=original	!
=79	=79	=79	=79	=79	=79	=79	=79	=79	=79	=79	=79
8BB-/L	6	2.r	.	2.r	.	.	.	(16dd\LL	.	16gg\LL]	.
.	.	.	.	.	.	.	.	16g\)	.	16dd\	.
8C/J	.	.	.	.	.	.	.	16cc\	.	16ee-\	.
.	.	.	.	.	.	.	.	16a\JJ	.	16cc\JJ	.
4D/	6 4	.	.	.	.	.	.	4g/	.	4b-/	.
4DD/	5 #	.	.	.	.	.	.	4f#Xt/	.	4at/	.
=80	=80	=80	=80	=80	=80	=80	=80	=80	=80	=80	=80
!	!	!LO:TX:t=P:problem:mixed beam	!	!LO:TX:t=P:problem:mixed beam	!	!	!	!	!	!	!
4GG/	.	8G/L	.	8G/L	.	.	.	4g/	.	4g/	.
!	!	!	!LO:DY:t=for	!	!	!	!	!	!	!	!
.	.	8gg\J	f	8gg\J	.	.	.	.	.	.	.
!	!	!LO:TX:t=P:problem:mixed beam	!	!LO:DY:t=for	!	!	!	!	!	!	!
4GG/	6 4	8e-/L	.	8e-/L	f	.	.	2ee-T\	.	2ggT\	.
.	.	8cc\J	.	8cc/J	.	.	.	.	.	.	.
!	!	!LO:TX:t=P:problem:mixed beam	!	!	!	!	!	!	!	!	!
4GG/	.	8g/L	.	8g/L|	.	.	.	.	.	.	.
.	.	8ee-\J	.	8ee-/J|	.	.	.	.	.	.	.
!	!	!LO:LB:g=original	!	!	!	!	!	!	!	!	!
=81	=81	=81	=81	=81	=81	=81	=81	=81	=81	=81	=81
*	*	*	*	*	*	*	*	*tuplet	*	*tuplet	*
!	!	!LO:TX:t=P:problem:mixed beam	!	!LO:TX:t=P:problem:mixed beam	!	!	!	!LO:TUP:a:problem:klamra łukowa	!	!LO:TUP:a:problem:klamra łukowa	!
4GG/	7 n	8G/L	.	8G/L	.	8r	8r	12dd\L	.	12ffn\L	.
.	.	.	.	.	.	.	.	12cc\	.	12ee-\	.
.	.	8ff\J	.	8ff\J	.	8dd\L	8ff\L	.	.	.	.
.	.	.	.	.	.	.	.	12bn\J	.	12dd\J	.
4GG/	.	8d/L	.	8d/L	.	8dd\	8ff\	2ddt\	.	2ffT\	.
.	.	8bn/J	.	8bn/J	.	8dd\J	8ff\J	.	.	.	.
4GG/	.	8f/L	.	8f/L	.	4dd\	4ff\	.	.	.	.
.	.	8dd/J	.	8dd/J	.	.	.	.	.	.	.
=82	=82	=82	=82	=82	=82	=82	=82	=82	=82	=82	=82
!	!	!LO:TX:t=P:problem:mixed beam	!	!LO:TX:t=P:problem:mixed beam	!	!	!	!	!	!	!
4GG/	6 4	8G/L	.	8G/L	.	8r	8r	4cc\	.	4ee-\	.
.	.	8ee-\J	.	8ee-\J	.	8cc\L	8ee-\L	.	.	.	.
4GG/	.	8c/L	.	8c/L	.	8cc\	8ee-\	2ccT\	.	2ee-T\	.
.	.	8g/J	.	8g/J	.	8cc\J	8ee-\J	.	.	.	.
4GG/	.	8e-/L	.	8e-/L	.	4cc\	4ee-\	.	.	.	.
.	.	8cc/J	.	8cc/J	.	.	.	.	.	.	.
!	!	!	!	!	!	!LO:LB:g=original	!	!	!	!	!
=83	=83	=83	=83	=83	=83	=83	=83	=83	=83	=83	=83
!	!	!LO:TX:t=P:problem:mixed beam	!	!LO:TX:t=P:problem:mixed beam	!	!	!	!	!	!	!
4GG/	5 -	8G/L	.	8G/L	.	8r	8r	4b-X/	.	4dd\	.
.	.	8dd\J	.	8dd\J	.	8b-\L	8dd\L	.	.	.	.
4GG/	.	8B-X/L	.	8B-X/L	.	8b-\	8dd\	2b-T/	.	2ddt\	.
.	.	8g/J	.	8g/J	.	8b-\J	8dd\J	.	.	.	.
4GG/	.	8d/L	.	8d/L	.	4b-\	4dd\	.	.	.	.
.	.	8b-/J	.	8b-/J	.	.	.	.	.	.	.
!	!	!	!	!	!	!	!LO:LB:g=original	!	!	!	!
=84	=84	=84	=84	=84	=84	=84	=84	=84	=84	=84	=84
!	!	!LO:TX:t=P:problem:mixed beam	!	!LO:TX:t=P:problem:mixed beam	!	!	!	!	!	!	!
4GG/	#7r 4 2	8G/L	.	8G/L	.	4r	4r	4a/	.	4cc\	.
.	.	8cc\J	.	8cc\J	.	.	.	.	.	.	.
4GG/	.	8A/L	.	8A/L	.	4d/	4d/	4.at/	.	4.ccT\	.
.	.	8f#X/J	.	8f#X/J	.	.	.	.	.	.	.
4GG/	.	8c/L	.	8c/L	.	4d/	4d/	.	.	.	.
.	.	8a/J	.	8a/J	.	.	.	(16g/LL	.	(16b-\LL	.
.	.	.	.	.	.	.	.	16f#X/JJ)	.	16a\JJ)	.
!LO:LB:g=original	!	!	!	!LO:LB:g=original	!	!	!	!	!	!	!
=85	=85	=85	=85	=85	=85	=85	=85	=85	=85	=85	=85
16G\LL	8 3	(16g/LL	.	(16g/LL	.	4d/	4d/	(16g/LL	.	(16g/LL	.
16F#X\	.	16f#X/	.	16f#X/	.	.	.	16f#X/	.	16f#X/	.
16G\	.	16g/)	.	16g/)	.	.	.	16g/	.	16g/	.
16A\JJ	.	16a/JJ|	.	16a/JJ|	.	.	.	16a/JJ)	.	16a/JJ)	.
8G\L|	.	8g/L	.	8g/L	.	4r	4r	8g/L	.	8g/L|	.
8B-\J|	.	8b-/	.	8b-/	.	.	.	8b-/	.	8b-/J|	.
8D\L|	.	8e-/	.	8d/	.	4r	4r	8d/	.	8d/L|	.
8F#X\J|	.	8f#X/J	.	8f#X/J	.	.	.	8f#X/J	.	8f#X/J|	.
!	!	!	!	!	!	!	!	!LO:LB:g=original	!	!LO:LB:g=original	!
=86	=86	=86	=86	=86	=86	=86	=86	=86	=86	=86	=86
8.G\L	.	8.g/L	.	8.g/L	.	4r	4r	8.g\L	.	8.g\L	.
16C\Jk	.	16c/Jk	.	16c/Jk	.	.	.	16cc\Jk	.	16cc\Jk	.
4D/	.	4d/|	.	4d/|	.	4d/	4d/	4dd\	.	4dd\|	.
4D/	.	4d/|	.	4d/|	.	4d/	4d/	4d/	.	4d/|	.
=87	=87	=87	=87	=87	=87	=87	=87	=87	=87	=87	=87
2.GG/	.	2.G/	.	2.G/	.	2.d/	2.d/	2.g/	.	2.g/	.
==	==	==	==	==	==	==	==	==	==	==	==
*-	*-	*-	*-	*-	*-	*-	*-	*-	*-	*-	*-
!!!system-decoration: [(g1)][(g2)][(g3)]s7
!!!RDF**kern: | = vertical stroke
!!!ENC: Filip Voros
!!!END: 2022-03-26
!!!AIN: 2 clrno 2 oboe 1 organ 2 violn
!!!ENC: Marta Lawrence
!!!END: 2022-03-27
